public/svg/why_choose/cancel.svg

<svg width="8" height="11" viewBox="0 0 8 11" fill="none" xmlns="http://www.w3.org/2000/svg">
<path d="M7.99121 0.546875C7.51725 1.14844 7.05013 1.74544 6.58984 2.33789C6.13411 2.93034 5.68294 3.52507 5.23633 4.12207C5.47331 4.60514 5.71484 5.111 5.96094 5.63965C6.20703 6.16374 6.45996 6.72201 6.71973 7.31445L6.52148 7.47852L6.53516 7.62207C6.49414 7.66309 6.44857 7.70182 6.39844 7.73828C6.35286 7.77018 6.30046 7.7998 6.24121 7.82715L6.31641 8.05273C6.26628 8.14388 6.20247 8.21908 6.125 8.27832C6.04753 8.33301 5.96322 8.36947 5.87207 8.3877C5.77637 8.38314 5.57129 8.15983 5.25684 7.71777C4.94694 7.27116 4.53451 6.61719 4.01953 5.75586C3.5319 6.42578 3.05794 7.11621 2.59766 7.82715C2.14193 8.53809 1.69987 9.27181 1.27148 10.0283C1.16211 10.083 1.04818 10.124 0.929688 10.1514C0.811198 10.1787 0.688151 10.1924 0.560547 10.1924H0.478516C0.346354 10.0693 0.239258 9.93717 0.157227 9.7959C0.0797526 9.65918 0.0410156 9.5498 0.0410156 9.46777C0.0410156 9.4222 0.0478516 9.36751 0.0615234 9.30371C0.0751953 9.23991 0.0957031 9.16016 0.123047 9.06445L0 8.83887C0.164062 8.42415 0.510417 7.84082 1.03906 7.08887C1.57227 6.33236 2.2946 5.389 3.20605 4.25879C3.02376 3.77572 2.83919 3.27214 2.65234 2.74805C2.47005 2.22396 2.26725 1.62695 2.04395 0.957031C2.10319 0.829427 2.16699 0.726888 2.23535 0.649414C2.30371 0.57194 2.36523 0.533203 2.41992 0.533203C2.45638 0.533203 2.49284 0.544596 2.5293 0.567383C2.56576 0.585612 2.60449 0.617513 2.64551 0.663086C2.67285 0.635742 2.70475 0.615234 2.74121 0.601562C2.77767 0.583333 2.81641 0.574219 2.85742 0.574219H2.91211C2.94401 0.528646 2.97819 0.489909 3.01465 0.458008C3.05111 0.426107 3.09212 0.396484 3.1377 0.369141H3.15137C3.28353 0.369141 3.53418 0.761068 3.90332 1.54492C4.12663 2.01888 4.31348 2.40625 4.46387 2.70703C4.73275 2.39714 5.0791 1.98926 5.50293 1.4834C6.31413 0.517253 6.76074 0.0341797 6.84277 0.0341797C6.8929 0.0341797 6.95671 0.0569661 7.03418 0.102539C7.11621 0.143555 7.21191 0.207357 7.32129 0.293945L7.62891 0C7.70182 0.077474 7.7679 0.161784 7.82715 0.25293C7.89095 0.344076 7.94564 0.442057 7.99121 0.546875Z" fill="#414651"/>
</svg>

<svg xmlns="http://www.w3.org/2000/svg" width="8" height="11" fill="none" viewBox="0 0 8 11"><path fill="#414651" d="M7.991.547q-.71.902-1.401 1.79-.684.89-1.354 1.785A83 83 0 0 1 6.72 7.314l-.199.165.014.143q-.06.062-.137.116a1 1 0 0 1-.157.09l.075.225a.7.7 0 0 1-.191.225.7.7 0 0 1-.253.11q-.143-.007-.615-.67-.465-.67-1.237-1.962-.732 1.005-1.422 2.071-.684 1.067-1.327 2.201a1.5 1.5 0 0 1-.71.164H.479a1.7 1.7 0 0 1-.322-.396Q.041 9.59.041 9.468q0-.069.02-.164.021-.096.062-.24L0 8.84q.246-.622 1.04-1.75a57 57 0 0 1 2.166-2.83 88 88 0 0 1-.554-1.511Q2.38 1.962 2.044.957q.09-.191.191-.308.103-.116.185-.116.054 0 .11.034.053.028.116.096A.3.3 0 0 1 2.74.602a.3.3 0 0 1 .116-.028h.055A.64.64 0 0 1 3.138.37h.013q.199 0 .752 1.176.335.71.56 1.162.404-.465 1.04-1.224Q6.72.034 6.843.034q.075 0 .191.069.123.06.287.19L7.63 0q.11.116.198.253.096.137.164.294"/></svg>
